X: 30764
T: Orphan, The
R: jig
M: 6/8
K: Eminor
|:E3 EDB|GFG AGA|B3 ABA|GEF EDB|
E3 EDB|GFG AGA|B3 ABA|1 GED EGF:|2 GED E3||
|:e3 dBA|GAB dB/c/d|e3 dBA|BEF EDB|
E3 EDB|GFG AGA|B3 ABA|1 GED E3:|2 GED EGF||

